X: 631
T: O'Carolan's Devotion
B: O'Neill's 631
Z: 1999 by John Chambers <jc@eddie.mit.edu> http://eddie.mit.edu/~jc/music/abc/
N: "Animated"
N: "2nd setting"
N: k represents a ">" stress.
N: M represents a "_" emphasis.
N: H represents a fermata (hold).
N: T represents a trill.
M: 3/4
L: 1/8
K:Gm
"p"(g>a) \
|kb2 b//a//g3/ g//a//b3/|gkf2 de kf2 \
|dcBA TGF|kF4 GA|
|B2 B//c//d3/ d//c//B3/|kc2 dfgd \
|.c.B.A.G .G.G|kG4 :|
||TGF \
|D2 F2 .F2|kFG "p"FETDC \
|"f"D2 G2 kG2|GA "p"GF TED|
|"f"D2 B2 .B2|BcBAGA \
|F2 f2 .f2|kf4 ga|
|b2 baga|b2 d2 .d2 \
|dc Bcde|"p"f2 A2 .A2|
|BA GABc|d2 A2 AG \
|GF TEDDE|D4 de|
|"f"f2 f//g//a3/ f//g//a3/|gz g2 fd \
|"p"cABA TGF|F4 GA|
|B2 "f"B//c//d3/ d//c//B3/|c2 dfgd \
|k.c.B.A.G "p".G.G|G4|]
